my_site/img/advantanges/07.svg

<svg width="49" height="48" viewBox="0 0 49 48" fill="none" xmlns="http://www.w3.org/2000/svg">
<g clip-path="url(#clip0)">
<g clip-path="url(#clip1)">
<path d="M43.5886 12.5255H38.519V7.45592C38.519 6.55955 38.1629 5.6999 37.5291 5.06608C36.8953 4.43225 36.0356 4.07617 35.1393 4.07617H14.8608C13.9644 4.07617 13.1048 4.43225 12.4709 5.06608C11.8371 5.6999 11.481 6.55955 11.481 7.45592V12.5255H6.41142C5.06687 12.5255 3.77739 13.0597 2.82665 14.0104C1.87592 14.9611 1.3418 16.2506 1.3418 17.5952V41.2534C1.3418 42.1497 1.69788 43.0094 2.3317 43.6432C2.96553 44.2771 3.82518 44.6331 4.72154 44.6331H45.2785C46.1749 44.6331 47.0345 44.2771 47.6683 43.6432C48.3022 43.0094 48.6582 42.1497 48.6582 41.2534V17.5952C48.6582 16.2506 48.1241 14.9611 47.1734 14.0104C46.2227 13.0597 44.9332 12.5255 43.5886 12.5255ZM14.8608 7.45592H35.1393V12.5255H14.8608V7.45592ZM45.2785 41.2534H4.72154V26.0445H18.2405V34.4939H31.7595V26.0445H45.2785V41.2534ZM21.6203 26.0445H28.3798V31.1141H21.6203V26.0445ZM4.72154 22.6648V17.5952C4.72154 17.147 4.89958 16.7172 5.2165 16.4002C5.53341 16.0833 5.96323 15.9053 6.41142 15.9053H43.5886C44.0368 15.9053 44.4666 16.0833 44.7836 16.4002C45.1005 16.7172 45.2785 17.147 45.2785 17.5952V22.6648H4.72154Z" fill="#0D5C63"/>
</g>
</g>
<defs>
<clipPath id="clip0">
<rect width="48" height="48" fill="white" transform="translate(0.5)"/>
</clipPath>
<clipPath id="clip1">
<rect width="48" height="40.7089" fill="white" transform="translate(1 4)"/>
</clipPath>
</defs>
</svg>

<svg width="49" height="48" fill="none" xmlns="http://www.w3.org/2000/svg"><g clip-path="url(#clip0)"><g clip-path="url(#clip1)"><path d="M43.589 12.525h-5.07v-5.07a3.38 3.38 0 00-3.38-3.379H14.861a3.38 3.38 0 00-3.38 3.38v5.07h-5.07a5.07 5.07 0 00-5.07 5.07v23.657a3.38 3.38 0 003.38 3.38H45.28a3.38 3.38 0 003.38-3.38V17.595a5.07 5.07 0 00-5.07-5.07zM14.86 7.455h20.278v5.07H14.861v-5.07zm30.418 33.798H4.721V26.044H18.24v8.45h13.52v-8.45h13.518v15.21zM21.62 26.044h6.76v5.07h-6.76v-5.07zm-16.898-3.38v-5.069a1.69 1.69 0 011.69-1.69h37.177a1.69 1.69 0 011.69 1.69v5.07H4.721z" fill="#0D5C63"/></g></g><defs><clipPath id="clip0"><path fill="#fff" transform="translate(.5)" d="M0 0h48v48H0z"/></clipPath><clipPath id="clip1"><path fill="#fff" transform="translate(1 4)" d="M0 0h48v40.709H0z"/></clipPath></defs></svg>
